scalable/mimes/text-x-changelog.svg

<?xml version="1.0" encoding="UTF-8" standalone="no"?>
<!-- Created with Inkscape (http://www.inkscape.org/) -->

<svg
   xmlns:dc="http://purl.org/dc/elements/1.1/"
   xmlns:cc="http://creativecommons.org/ns#"
   xmlns:rdf="http://www.w3.org/1999/02/22-rdf-syntax-ns#"
   xmlns:svg="http://www.w3.org/2000/svg"
   xmlns="http://www.w3.org/2000/svg"
   xmlns:xlink="http://www.w3.org/1999/xlink"
   xmlns:sodipodi="http://sodipodi.sourceforge.net/DTD/sodipodi-0.dtd"
   xmlns:inkscape="http://www.inkscape.org/namespaces/inkscape"
   id="svg2677"
   width="48"
   height="48"
   version="1.0"
   sodipodi:docname="text-x-changelog.svg"
   inkscape:version="0.92.3 (2405546, 2018-03-11)">
  <metadata
     id="metadata71">
    <rdf:RDF>
      <cc:Work
         rdf:about="">
        <dc:format>image/svg+xml</dc:format>
        <dc:type
           rdf:resource="http://purl.org/dc/dcmitype/StillImage" />
        <dc:title></dc:title>
      </cc:Work>
    </rdf:RDF>
  </metadata>
  <sodipodi:namedview
     pagecolor="#ffffff"
     bordercolor="#666666"
     borderopacity="1"
     objecttolerance="10"
     gridtolerance="10"
     guidetolerance="10"
     inkscape:pageopacity="0"
     inkscape:pageshadow="2"
     inkscape:window-width="1366"
     inkscape:window-height="714"
     id="namedview69"
     showgrid="false"
     inkscape:zoom="10.520833"
     inkscape:cx="24"
     inkscape:cy="24"
     inkscape:window-x="0"
     inkscape:window-y="25"
     inkscape:window-maximized="1"
     inkscape:current-layer="svg2677"
     showguides="true"
     inkscape:guide-bbox="true"
     inkscape:snap-smooth-nodes="true"
     inkscape:snap-global="true" />
  <defs
     id="defs2679">
    <linearGradient
       inkscape:collect="always"
       id="linearGradient1026">
      <stop
         style="stop-color:#1f241c;stop-opacity:1;"
         offset="0"
         id="stop1022" />
      <stop
         style="stop-color:#1f241c;stop-opacity:0;"
         offset="1"
         id="stop1024" />
    </linearGradient>
    <linearGradient
       id="linearGradient2642"
       x1="302.86"
       x2="302.86"
       y1="366.65"
       y2="609.51"
       gradientTransform="matrix(.067325 0 0 .0147 -.34114 37.04)"
       gradientUnits="userSpaceOnUse">
      <stop
         id="stop5050"
         style="stop-opacity:0"
         offset="0" />
      <stop
         id="stop5056"
         offset=".5" />
      <stop
         id="stop5052"
         style="stop-opacity:0"
         offset="1" />
    </linearGradient>
    <radialGradient
       id="radialGradient2639"
       cx="605.71"
       cy="486.65"
       r="117.14"
       gradientTransform="matrix(-.02304 0 0 .0147 21.623 37.04)"
       gradientUnits="userSpaceOnUse"
       xlink:href="#linearGradient5060" />
    <linearGradient
       id="linearGradient5060">
      <stop
         id="stop5062"
         offset="0" />
      <stop
         id="stop5064"
         style="stop-opacity:0"
         offset="1" />
    </linearGradient>
    <radialGradient
       id="radialGradient2636"
       cx="605.71"
       cy="486.65"
       r="117.14"
       gradientTransform="matrix(.02304 0 0 .0147 26.361 37.04)"
       gradientUnits="userSpaceOnUse"
       xlink:href="#linearGradient5060" />
    <linearGradient
       id="linearGradient2633"
       x1="-51.786"
       x2="-51.786"
       y1="50.786"
       y2="2.9062"
       gradientTransform="matrix(.8075 0 0 .89483 59.41 -2.9806)"
       gradientUnits="userSpaceOnUse">
      <stop
         id="stop3106"
         style="stop-color:#aaa"
         offset="0" />
      <stop
         id="stop3108"
         style="stop-color:#c8c8c8"
         offset="1" />
    </linearGradient>
    <linearGradient
       id="linearGradient2631"
       x1="25.132"
       x2="25.132"
       y1=".98521"
       y2="47.013"
       gradientTransform="matrix(1 0 0 .95617 -1.0065e-7 -1.9149)"
       gradientUnits="userSpaceOnUse">
      <stop
         id="stop3602"
         style="stop-color:#f4f4f4"
         offset="0" />
      <stop
         id="stop3604"
         style="stop-color:#dbdbdb"
         offset="1" />
    </linearGradient>
    <radialGradient
       id="radialGradient2628"
       cx="102"
       cy="112.3"
       r="139.56"
       gradientTransform="matrix(.3617 0 0 -.39078 .85106 47.517)"
       gradientUnits="userSpaceOnUse">
      <stop
         id="stop41"
         style="stop-color:#b7b8b9"
         offset="0" />
      <stop
         id="stop47"
         style="stop-color:#ececec"
         offset=".18851" />
      <stop
         id="stop49"
         style="stop-color:#fafafa;stop-opacity:0"
         offset=".25718" />
      <stop
         id="stop51"
         style="stop-color:#fff;stop-opacity:0"
         offset=".30111" />
      <stop
         id="stop53"
         style="stop-color:#fafafa;stop-opacity:0"
         offset=".5313" />
      <stop
         id="stop55"
         style="stop-color:#ebecec;stop-opacity:0"
         offset=".8449" />
      <stop
         id="stop57"
         style="stop-color:#e1e2e3;stop-opacity:0"
         offset="1" />
    </radialGradient>
    <linearGradient
       id="linearGradient2625"
       x1="24"
       x2="24"
       y1="2"
       y2="46.017"
       gradientTransform="matrix(1 0 0 .97778 0 -.96667)"
       gradientUnits="userSpaceOnUse">
      <stop
         id="stop3213"
         style="stop-color:#fff"
         offset="0" />
      <stop
         id="stop3215"
         style="stop-color:#fff;stop-opacity:0"
         offset="1" />
    </linearGradient>
    <filter
       id="filter3212"
       x="-.14846"
       y="-.16434"
       width="1.2969"
       height="1.3287"
       color-interpolation-filters="sRGB">
      <feGaussianBlur
         id="feGaussianBlur3214"
         stdDeviation="0.77391625" />
    </filter>
    <linearGradient
       id="linearGradient2621"
       x1="32.892"
       x2="36.358"
       y1="8.059"
       y2="5.4565"
       gradientTransform="matrix(.9977 0 0 1.0407 .1638 -1.1058)"
       gradientUnits="userSpaceOnUse">
      <stop
         id="stop8591"
         style="stop-color:#fefefe"
         offset="0" />
      <stop
         id="stop8593"
         style="stop-color:#cbcbcb"
         offset="1" />
    </linearGradient>
    <radialGradient
       id="radialGradient2675"
       cx="22.902"
       cy="45.867"
       r="7.9059"
       gradientTransform="matrix(.69765 0 0 .29961 12.507 18.89)"
       gradientUnits="userSpaceOnUse">
      <stop
         id="stop3197"
         offset="0" />
      <stop
         id="stop3199"
         style="stop-opacity:0"
         offset="1" />
    </radialGradient>
    <radialGradient
       id="radialGradient2672"
       cx="22.902"
       cy="45.867"
       r="7.9059"
       gradientTransform="matrix(.75875 0 0 .32584 -.80598 19.479)"
       gradientUnits="userSpaceOnUse">
      <stop
         id="stop3203"
         offset="0" />
      <stop
         id="stop3205"
         style="stop-opacity:0"
         offset="1" />
    </radialGradient>
    <radialGradient
       id="radialGradient2668"
       cx="17.059"
       cy="41.059"
       r="5.7385"
       fx="14.638"
       fy="38.175"
       gradientTransform="matrix(.66498 0 -.10886 .63739 9.9382 5.2626)"
       gradientUnits="userSpaceOnUse">
      <stop
         id="stop3877"
         style="stop-color:#aaa"
         offset="0" />
      <stop
         id="stop3879"
         style="stop-color:#4d4d4d"
         offset="1" />
    </radialGradient>
    <radialGradient
       id="radialGradient2665"
       cx="17.059"
       cy="41.059"
       r="5.7385"
       fx="14.109"
       fy="38.981"
       gradientTransform="matrix(.66333 0 -.10859 .6358 21.997 3.4975)"
       gradientUnits="userSpaceOnUse">
      <stop
         id="stop3871"
         style="stop-color:#aaa"
         offset="0" />
      <stop
         id="stop3873"
         style="stop-color:#4d4d4d"
         offset="1" />
    </radialGradient>
    <linearGradient
       id="linearGradient2662"
       x1="28.739"
       x2="25.4"
       y1="144.12"
       y2="119.86"
       gradientTransform="matrix(.22147 0 0 .22311 14.032 -16.079)"
       gradientUnits="userSpaceOnUse">
      <stop
         id="stop3239"
         style="stop-color:#fff"
         offset="0" />
      <stop
         id="stop3241"
         style="stop-color:#fff;stop-opacity:.37931"
         offset="1" />
    </linearGradient>
    <linearGradient
       id="linearGradient2659"
       x1="28.739"
       x2="26.257"
       y1="144.12"
       y2="125.39"
       gradientTransform="matrix(.44563 0 0 .22311 20.716 -17.657)"
       gradientUnits="userSpaceOnUse">
      <stop
         id="stop3245"
         style="stop-color:#fff"
         offset="0" />
      <stop
         id="stop3247"
         style="stop-color:#fff;stop-opacity:.37931"
         offset="1" />
    </linearGradient>
    <linearGradient
       id="linearGradient2444-734-39"
       x1="28.534"
       x2="16.886999"
       y1="24.24"
       y2="13.664"
       gradientTransform="matrix(1.0502,0,0,0.99322,-1.7066442,-3.0606452)"
       gradientUnits="userSpaceOnUse">
      <stop
         id="stop3388"
         style="stop-color:#dbd2a2"
         offset="0" />
      <stop
         id="stop3390"
         style="stop-color:#fff;stop-opacity:0"
         offset="1" />
    </linearGradient>
    <linearGradient
       id="linearGradient6119"
       x1="22.104"
       x2="22.104"
       y1="40.124001"
       y2="10.035"
       gradientTransform="matrix(0.66556,0,0,1.4408,4.5203,-11.849)"
       gradientUnits="userSpaceOnUse"
       xlink:href="#linearGradient5031" />
    <linearGradient
       id="linearGradient5031">
      <stop
         id="stop5033"
         style="stop-color:#a3a3a3"
         offset="0" />
      <stop
         id="stop5035"
         style="stop-color:#bababa"
         offset="1" />
    </linearGradient>
    <linearGradient
       id="linearGradient6090"
       x1="22.104"
       x2="22.104"
       y1="40.124001"
       y2="10.035"
       gradientTransform="matrix(1.0228,0,0,1.4408,-0.69869,-6.5277)"
       gradientUnits="userSpaceOnUse"
       xlink:href="#linearGradient5031" />
    <linearGradient
       id="linearGradient5988"
       x1="22.104"
       x2="22.104"
       y1="40.124001"
       y2="10.035"
       gradientTransform="matrix(0.33421,0,0,1.4207,9.679,-1.238)"
       gradientUnits="userSpaceOnUse"
       xlink:href="#linearGradient5031" />
    <linearGradient
       id="linearGradient5984"
       x1="22.104"
       x2="22.104"
       y1="40.124001"
       y2="10.035"
       gradientTransform="matrix(0.48763,0,0,1.4407,7.7773,0.40824)"
       gradientUnits="userSpaceOnUse"
       xlink:href="#linearGradient5031" />
    <linearGradient
       id="linearGradient5980"
       x1="22.104"
       x2="22.104"
       y1="40.124001"
       y2="10.035"
       gradientTransform="matrix(0.3695,0,0,1.4205,9.0116,2.7803)"
       gradientUnits="userSpaceOnUse"
       xlink:href="#linearGradient5031" />
    <linearGradient
       id="linearGradient6073"
       x1="22.104"
       x2="22.104"
       y1="40.124001"
       y2="10.035"
       gradientTransform="matrix(0.38146,0,0,1.4009,8.4789,5.2584)"
       gradientUnits="userSpaceOnUse"
       xlink:href="#linearGradient5031" />
    <linearGradient
       id="linearGradient6143"
       x1="22.104"
       x2="22.104"
       y1="40.124001"
       y2="10.035"
       gradientTransform="matrix(0.40636,0,0,1.4408,8.3144,-5.594)"
       gradientUnits="userSpaceOnUse"
       xlink:href="#linearGradient5031" />
    <linearGradient
       id="linearGradient6065"
       x1="22.104"
       x2="22.104"
       y1="40.124001"
       y2="10.035"
       gradientTransform="matrix(1.7828,0,0,1.4408,-37.939,-28.441)"
       gradientUnits="userSpaceOnUse"
       xlink:href="#linearGradient5031" />
    <linearGradient
       id="linearGradient3104">
      <stop
         id="stop3106-6"
         style="stop-color:#aaa"
         offset="0" />
      <stop
         id="stop3108-7"
         style="stop-color:#c8c8c8"
         offset="1" />
    </linearGradient>
    <linearGradient
       id="linearGradient3805"
       x1="83.239998"
       x2="83.239998"
       y1="42.457001"
       y2="57.610001"
       gradientTransform="matrix(0.30548729,0,0,0.32192102,4.6386185,-1.6064246)"
       gradientUnits="userSpaceOnUse">
      <stop
         id="stop3127"
         style="stop-color:#fff"
         offset="0" />
      <stop
         id="stop3129"
         style="stop-color:#e1e1e1"
         offset="1" />
    </linearGradient>
    <linearGradient
       id="linearGradient3843"
       x1="25.497999"
       x2="25.497999"
       y1="44.638"
       y2="0.27636999"
       gradientUnits="userSpaceOnUse"
       xlink:href="#linearGradient3104"
       gradientTransform="matrix(0.75626898,0,0,0.75626898,5.7300659,2.0183726)" />
    <linearGradient
       id="linearGradient2436"
       x1="22.104"
       x2="22.104"
       y1="39.699001"
       y2="9.2625999"
       gradientTransform="matrix(0.74011165,0,0,1.0721317,6.004716,-8.6542064)"
       gradientUnits="userSpaceOnUse">
      <stop
         id="stop4340"
         style="stop-color:#8e8e8e"
         offset="0" />
      <stop
         id="stop4342"
         style="stop-color:#b5b5b5"
         offset="1" />
    </linearGradient>
    <linearGradient
       inkscape:collect="always"
       xlink:href="#linearGradient1026"
       id="linearGradient1048"
       gradientUnits="userSpaceOnUse"
       x1="5.5112324"
       y1="3.3724618"
       x2="46.576633"
       y2="39.665943" />
  </defs>
  <g
     id="g1065">
    <path
       id="path10"
       d="M 7.113585,17.417992 13.01279,0.02996515 H 34.98554 L 40.885033,17.417992 33.055287,47.968525 H 14.944005 Z"
       style="fill:#6f917c"
       inkscape:connector-curvature="0" />
    <path
       id="path14"
       d="m 18.279383,43.815776 -3.3353,4.1525 h 18.113 l -3.3353,-4.1525 z"
       style="fill:#93ac9d"
       inkscape:connector-curvature="0" />
    <path
       inkscape:connector-curvature="0"
       id="path1020"
       d="m 34.007812,44.259766 6.064458,-23.666016 -9.962895,-9.962891 -8.400391,1.478516 -2.890625,-1.949219 -2.15039,2.689453 4.636719,4.705079 -0.671876,1.208984 4.503907,4.705078 -3.427735,0.402344 -2.822265,-1.679688 -2.353516,2.621094 5.109375,5.041016 -1.277344,0.941406 z"
       style="fill:url(#linearGradient1048);fill-opacity:1;stroke:none;stroke-width:1px;stroke-linecap:butt;stroke-linejoin:miter;stroke-opacity:1;opacity:0.55" />
    <g
       id="g18"
       style="fill:#536c5d;stroke-width:0.12053"
       transform="translate(3.83e-4,-0.00122385)">
      <path
         id="path16"
         d="m 29.720209,43.818576 3.335225,4.152701 7.830598,-30.551171 -4.440767,0.160827 z M 7.1136152,17.420339 14.942616,47.97151 18.277841,43.81881 11.552785,17.581376 Z M 13.012549,0.0309377 16.098293,4.1836378 h 15.801544 l 3.085744,-4.1527001 z"
         inkscape:connector-curvature="0" />
    </g>
    <g
       id="g22"
       style="fill:#37483e"
       transform="translate(3.83e-4,-0.00122385)">
      <path
         id="path20"
         d="M 7.1132018,17.419216 13.012407,0.031189 16.09831,4.1839604 11.552688,17.58026 Z M 36.444875,17.58026 31.899253,4.1839604 34.985157,0.031189 40.88465,17.419216 Z"
         inkscape:connector-curvature="0" />
    </g>
    <ellipse
       inkscape:transform-center-x="1.1425725"
       ry="1.8059406"
       rx="1.7108911"
       cy="11.405941"
       cx="17.679209"
       id="path901"
       style="opacity:1;fill:#1f241c;fill-opacity:1;fill-rule:nonzero;stroke:none;stroke-width:2.79999995;stroke-linejoin:round;stroke-miterlimit:4;stroke-dasharray:none;stroke-opacity:1" />
    <ellipse
       ry="1.8059406"
       rx="1.7108911"
       cy="17.405941"
       cx="21.679209"
       id="path901-3"
       style="opacity:1;fill:#1f241c;fill-opacity:1;fill-rule:nonzero;stroke:none;stroke-width:2.79999995;stroke-linejoin:round;stroke-miterlimit:4;stroke-dasharray:none;stroke-opacity:1" />
    <ellipse
       ry="1.8059406"
       rx="1.7108911"
       cy="23.405941"
       cx="17.679209"
       id="path901-3-7"
       style="opacity:1;fill:#1f241c;fill-opacity:1;fill-rule:nonzero;stroke:none;stroke-width:2.79999995;stroke-linejoin:round;stroke-miterlimit:4;stroke-dasharray:none;stroke-opacity:1" />
    <ellipse
       ry="1.8059406"
       rx="1.7108911"
       cy="29.405941"
       cx="21.679209"
       id="path901-3-5"
       style="opacity:1;fill:#1f241c;fill-opacity:1;fill-rule:nonzero;stroke:none;stroke-width:2.79999995;stroke-linejoin:round;stroke-miterlimit:4;stroke-dasharray:none;stroke-opacity:1" />
    <rect
       ry="0.80791998"
       y="10.455445"
       x="21.481188"
       height="1.9009901"
       width="8.9346533"
       id="rect954"
       style="opacity:1;fill:#1f241c;fill-opacity:1;fill-rule:nonzero;stroke:none;stroke-width:2.79999995;stroke-linejoin:round;stroke-miterlimit:4;stroke-dasharray:none;stroke-opacity:1" />
    <rect
       ry="0.80791998"
       y="22.455444"
       x="21.481186"
       height="1.9009901"
       width="8.9346533"
       id="rect954-3"
       style="opacity:1;fill:#1f241c;fill-opacity:1;fill-rule:nonzero;stroke:none;stroke-width:2.79999995;stroke-linejoin:round;stroke-miterlimit:4;stroke-dasharray:none;stroke-opacity:1" />
    <rect
       ry="0.80791998"
       y="16.455444"
       x="25.378216"
       height="1.9009901"
       width="5.0376234"
       id="rect954-5"
       style="opacity:1;fill:#1f241c;fill-opacity:1;fill-rule:nonzero;stroke:none;stroke-width:2.10248065;stroke-linejoin:round;stroke-miterlimit:4;stroke-dasharray:none;stroke-opacity:1" />
    <rect
       ry="0.80791998"
       y="28.455444"
       x="25.378216"
       height="1.9009901"
       width="5.0376234"
       id="rect954-5-6"
       style="opacity:1;fill:#1f241c;fill-opacity:1;fill-rule:nonzero;stroke:none;stroke-width:2.10248065;stroke-linejoin:round;stroke-miterlimit:4;stroke-dasharray:none;stroke-opacity:1" />
  </g>
</svg>

<svg xmlns="http://www.w3.org/2000/svg" xmlns:xlink="http://www.w3.org/1999/xlink" width="48" height="48" version="1"><defs><linearGradient id="d"><stop offset="0" stop-color="#1f241c"/><stop offset="1" stop-color="#1f241c" stop-opacity="0"/></linearGradient><linearGradient id="a"><stop offset="0"/><stop offset="1" stop-opacity="0"/></linearGradient><linearGradient id="b"><stop offset="0" stop-color="#a3a3a3"/><stop offset="1" stop-color="#bababa"/></linearGradient><linearGradient id="c"><stop offset="0" stop-color="#aaa"/><stop offset="1" stop-color="#c8c8c8"/></linearGradient><linearGradient xlink:href="#d" id="e" gradientUnits="userSpaceOnUse" x1="5.51" y1="3.37" x2="46.58" y2="39.67"/></defs><path d="M7.11 17.42L13.01.03H35l5.9 17.39-7.83 30.55H14.94z" fill="#6f917c"/><path d="M18.28 43.82l-3.34 4.15h18.12l-3.34-4.15z" fill="#93ac9d"/><path d="M34 44.26l6.07-23.67-9.96-9.96-8.4 1.48-2.9-1.95-2.14 2.69 4.63 4.7-.67 1.21 4.5 4.7-3.42.41-2.82-1.68-2.36 2.62 5.11 5.04-1.27.94z" fill="url(#e)" opacity=".55"/><path d="M29.72 43.82l3.34 4.15 7.83-30.55-4.44.16zm-22.6-26.4l7.82 30.55 3.34-4.15-6.73-26.24zM13.01.03l3.08 4.15h15.8L34.99.03z" fill="#536c5d" stroke-width=".12"/><path d="M7.11 17.42L13.01.03l3.09 4.15-4.55 13.4zm29.34.16L31.9 4.18 34.99.03l5.9 17.39z" fill="#37483e"/><ellipse ry="1.81" rx="1.71" cy="11.41" cx="17.68" fill="#1f241c"/><ellipse ry="1.81" rx="1.71" cy="17.41" cx="21.68" fill="#1f241c"/><ellipse ry="1.81" rx="1.71" cy="23.41" cx="17.68" fill="#1f241c"/><ellipse ry="1.81" rx="1.71" cy="29.41" cx="21.68" fill="#1f241c"/><rect ry=".81" y="10.46" x="21.48" height="1.9" width="8.93" fill="#1f241c"/><rect ry=".81" y="22.46" x="21.48" height="1.9" width="8.93" fill="#1f241c"/><rect ry=".81" y="16.46" x="25.38" height="1.9" width="5.04" fill="#1f241c"/><rect ry=".81" y="28.46" x="25.38" height="1.9" width="5.04" fill="#1f241c"/></svg>
